X:1
T:It’s Real
T:Homer L. Cox, 1907
T:It’s Real
T:Public Domain
T:Public Domain
T:Public Domain
C:Homer L. Cox, 1907
Z:Public Domain
%%score ( 1 2 ) 3
L:1/8
M:4/4
K:C
V:1 treble 
V:2 treble 
V:3 bass 
V:1
 [CE][DF] | [EG][EG][EG][FA] [EG][DF][CE][EG] | [Ec][Ec][GB][FA] [EG]2 [EG][FA] | %3
w: 1.~O how|well do I re- mem- ber How I|doubt- ed day by day, For I|
w: 2.~When the|truth came close and search- ing, All my|joys would dis- ap- pear, For I|
w: 3.~When the|Lord sent faith- ful ser- vants Who would|dare to preach the truth, How my|
w: 4.~But at|last I tired of liv- ing Such a|life of fear and doubt, For I|
w: 5.~So I|prayed to God in ear- nest, And not|car- ing what folks said. I was|
 [EG][DF][DF][EG] [DF][CE][CE][CE] | [B,D][B,D][CE][C^F] [B,G]2 [CE][D=F] | %5
w: did not know for cer- tain That my|sins were washed a- way. When the|
w: did not have the wit- ness Of the|Spir- it bright and clear. If at|
w: heart did so con- demn me As the|Spir- it gave re- proof! Sa- tan|
w: want- ed God to give me Some- thing|I would know a- bout, So the|
w: hun- gry for the bless- ing; My pour|soul— it must be fed. Then at|
 [EG][EG][EG][FA] [EG][DF][CE][EG] | [Ec][Ec][GB][FA] [EG]2 [EG][EG] | %7
w: Spir- it tried to tell me, I would|not the truth re- ceive; I en-|
w: times the com- ing judg- ment Would ap-|pear be- fore my mind, O it|
w: said at once, “Twill ru- in You now|to con- fess your state; Keep on|
w: truth would make me hap- py And the|light would clear- ly shine, And the|
w: last by faith I touched Him And, like|sparks from smit- ten steel, Just so|
 [FA][GB][Ac][FA] [EG][CE]C[CD] | [CE][CF][B,F][B,D] C2 ||"^Refrain" [EG][EG] | %10
w: dea- vored to be hap- py And to|my- self be- lieve. *||
w: made me so un- ea- sy, For God’s|I could not find. But|real, it’s|
w: work- ing and pro- fess- ing, And you’ll|ter Heav- en’s gate.” *||
w: Spir- it gave as- sur- ance That I’m|and He is mine. *||
w: quick sal- va- tion reached me. O bless|I know it’s real! *||
 [FB]3 [Ec] [Fd]2 [Ge][Fd] | [Ec]3 [FA] [EG]3 [Ec] | [Ec]>[Ec] [Ec][FA] [EG]<[CE] C[CD] | %13
w: |||
w: real! O I know it’s|real Praise God, the|doubts are set- tled, For I know, I|
w: |||
w: |||
w: |||
 [CE]>[CF] [B,E]>[B,D] [G,C]2 |] %14
w: |
w: it’s real! * * *|
w: |
w: |
w: |
V:2
 x2 | x8 | x8 | x8 | x8 | x8 | x8 | x6 C x | x4 C2 || x2 | x8 | x8 | x6 C x | x6 |] %14
w: |||||||make|||||||
w: |||||||smile|it’s||||know||
w: |||||||en-|||||||
w: |||||||His|||||||
w: |||||||God,|||||||
V:3
 [C,G,][C,G,] | [C,C][C,C][C,C][C,C] [C,C][C,G,][C,G,][C,C] | %2
w: ~ ~|~ ~ ~ ~ ~ ~ ~ ~|
 [C,G,][C,G,][E,C][F,C] [C,C]2 [C,C][C,C] | [G,,B,][G,,B,][G,,B,][G,,B,] [C,G,][C,G,][C,G,][C,G,] | %4
w: ~ ~ ~ ~ ~ ~ ~|~ ~ ~ ~ ~ ~ ~ ~|
 [D,G,][D,G,][D,^F,][D,A,] [G,,G,]2 [C,G,][C,G,] | [C,C][C,C][C,C][C,C] [C,C][C,G,][C,G,][C,C] | %6
w: ~ ~ ~ ~ ~ ~ ~|~ ~ ~ ~ ~ ~ ~ ~|
 [C,G,][C,G,][E,C][F,C] [C,C]2 [C,C][C,C] | [F,C][F,C][F,C][F,C] [C,C][C,G,][A,,^F,][A,,F,] | %8
w: ~ ~ ~ ~ ~ ~ ~|~ ~ ~ ~ ~ ~ ~ ~|
 [G,,G,][G,,A,][G,,G,][G,,F,] [C,E,]2 || [C,G,][C,C] | [G,D][G,D][G,D][G,C] [G,B,]2 [G,B,][G,B,] | %11
w: ~ ~ ~ ~ ~|But it’s|real, it’s real, it’s real! O I|
 [C,C][C,G,][C,G,][C,C] [C,C]3 [C,G,] | [C,G,]>[C,G,] [C,G,][C,C] [C,C]<[C,G,] [A,,^F,][A,,F,] | %13
w: know, I know it’s real! *||
 [G,,G,]>[G,,A,] [G,,G,]>[G,,F,] [C,E,]2 |] %14
w: |

